svg/u1f342.svg

<svg viewBox="0 0 128 128" xmlns="http://www.w3.org/2000/svg">
  <path d="M66.52,27.3L39.47,85.75c0,0-36.29,10.93-36.27,12.77c0.03,2.91,11.13,6.84,25.25,5.06 c14.99-1.89,18.95-6.51,20.09-6.51s6.74,2.71,8.5,2.55c2.86-0.26,3.72-5.46,7.14-8.7c3.89-3.69,10.6-11.75,10.6-11.75 s2.32,3.22,4.26,2.45c1.36-0.54,3.17-10.79,3.71-16.15c0.2-1.94,1.42-8.02,0.78-15.84C82.1,32.1,66.52,27.3,66.52,27.3z" fill="#865B50"/>
  <path d="M82.3,19.64c-1.52,0.24-3.29,1.89-3.92,3.79c-0.76,2.28-0.38,4.9,0.25,5.44 c1.1,0.94,6.48-0.88,7.05-0.88c1.55,0,5.18,1.83,5.18,1.83s-4.26,7.14-0.51,13.97c3.47,6.31,8.47,8.33,14.99,9.64 c4.11,0.83,8.26,1.11,11.87,2.5c3.61,1.39,3.4,3.89,4.16,3.75c0.76-0.14,2.08-6.24,0.56-12.91c-1.53-6.66-4.73-17.87-14.15-21.93 c-8.13-3.5-13.9,1.56-13.9,1.56s-4.2-2.13-6.97-2.71C86.59,23.64,83.58,19.44,82.3,19.64z" fill="#F7922A"/>
  <path d="M99.89,68.93c0,0,0.03-4.05,0.52-4.95s2.84-4.09,2.91-4.65c0.07-0.56-3.09-1.61-5.62-1.8 c-2.83-0.22-5.55,1.04-5.55,1.53s2.83,4.62,2.98,5.3c0.18,0.79,0.14,5.46,0.14,5.46s-6.26,0.85-10.48,7.93 c-7.13,11.97,0.12,22.93,0.12,22.93l7.41-2.71l-4.7,7.17c0,0,1.88,5.11,11.21,11.5c9.71,6.65,24.96,7.59,25.27,5.46 c0.19-1.33-2.32-2.55-5.28-8.27c-3.7-7.15-1.51-15.74-1.07-21.99s-1.34-14.7-8.4-19.17C104.07,69.32,99.89,68.93,99.89,68.93z" fill="#ED6B2F"/>
  <path d="M60.52,24.6c0,0,0.94-2.5,2.41-5.69c1.2-2.59,3.22-5.2,3.22-5.2s-1.14-8.53-0.83-9.26 s4.68,0.1,7.8,1.46c3.12,1.35,6.45,4.06,6.03,4.99s-5.51,3.95-7.38,6.03s-3.12,4.26-3.74,5.93c-0.62,1.66-1.46,4.37-1.46,4.37 s13.14,4,14.62,19.54c1.21,12.68-3.93,23.72-9.87,30.13c-5.94,6.41-10.59,10.67-11.69,12.86s-3.2,5.94-4.67,5.51 c-0.6-0.18-6.39-2.66-7.17-2.66s-7.37,4.69-17.12,6.99C19.43,102.25,9.9,101,7.55,100.53c-2.34-0.47-5.19-1.03-4.19-2.57 c0.86-1.33,5.76-4.95,9.53-9.24c4.09-4.66,6.23-9.61,6.23-9.61s-4.07-2.2-4.16-3.64c-0.08-1.5,2.99-3.77,5.19-7.53 c1.49-2.54,3.9-7.68,3.9-9.09s-3.74-4.1-3.69-5.19c0.05-1.08,3.64-1.97,7.07-7.92c2.99-5.19,5.17-14.55,15.32-19.22 C52.86,21.88,60.52,24.6,60.52,24.6z" fill="#C36639"/>
  <path d="M113.25,33.64c0.02,0.81-9.98,1.53-9.98,1.53s0.16,10.88-0.9,11.29c-1.75,0.67-3.28-11.64-2.47-13.4 C100.7,31.3,113.2,31.71,113.25,33.64z" fill="#ED6B2F"/>
  <path d="M95.32,30.2c-1.44,1.77,2.84,3.67,8.9,8.51c9.1,7.26,13.35,12.5,14.2,12.17 c0.85-0.33-3.47-8.44-11.97-14.98C100.74,31.5,96.49,28.76,95.32,30.2z" fill="#ED6B2F"/>
  <path d="M98.32,74.05c-1.15,0.05-2.16,6.93,1.44,19.77c3.61,12.86,13.19,22.01,13.85,21.57 c0.87-0.58-8.01-13.28-10.39-22.15C101.01,85,99.98,73.98,98.32,74.05z" fill="#AB5731"/>
  <path d="M87.96,95.95c0.47,0.34,4.63-3.91,7.47-7.04c2.08-2.3,3.97-4.33,3.97-4.33s2.79,1.33,5.92,2.67 c4.19,1.8,8.73,4.28,9.38,3.39c0.58-0.79-5.19-5.34-8.66-7.22c-3.46-1.88-7.22-3.39-7.22-3.39s-3.46,3.1-5.56,5.77 C91.87,87.59,86.67,95.01,87.96,95.95z" fill="#AB5731"/>
  <path d="M103.2,95.9c-2.29,0.14-4.1,8.46-4.45,11.54c-0.35,3.08-0.53,5.47,0.21,5.76 c0.76,0.31,4.96-13.45,4.96-13.45s9.81,8.17,10.48,7.38s-3.13-5.59-5.18-7.35S104.45,95.82,103.2,95.9z" fill="#AB5731"/>
  <path d="M61.65,29.81c-1.35-0.49-4.72,3.78-10.65,17.75c-6.51,15.32-14.58,25.71-20.77,32.73 c-8.28,9.39-13.56,11.66-12.28,12.43c1.63,0.98,16.48-7.43,25.16-19.92c4.32-6.22,7.1-11.44,9.46-16.43 c4.32-9.12,5.1-12.65,6.05-15.38C60.96,34.23,63.01,30.3,61.65,29.81z" fill="#865B50"/>
  <path d="M22.13,73.05c-0.15,1.42,8.69-0.23,12.73-1.83s8.61-3.88,8.61-3.88s0.96,5.01,2.17,8.82 c1.77,5.56,6.61,12.57,7.58,11.88c1.18-0.84-1.85-5.9-3.37-12.89c-1.47-6.77-1.83-14.67-1.91-15.43c-0.08-0.72-6.22,4.65-13.47,8.02 C27.76,70.86,22.3,71.45,22.13,73.05z" fill="#865B50"/>
  <path d="M28.72,52.06c1.2,1.33,9.37,0.72,15.08-1.51c6.1-2.39,10.88-4.1,10.88-4.1s0.85,3.76,5.13,11.47 c4.34,7.82,11,11.33,12.18,10.32c1.82-1.56-4.96-4.62-9.02-15.25c-3.42-8.95-3.86-16.91-3.86-16.91s-4.86,4.76-15.12,9.18 C34.71,49.26,27.24,50.43,28.72,52.06z" fill="#865B50"/>
</svg>

<svg viewBox="0 0 128 128" xmlns="http://www.w3.org/2000/svg">
  <defs/>
  <path d="M66.52,27.3 L39.47,85.75 C39.47,85.75 3.18,96.68 3.2,98.52 C3.23,101.43 14.33,105.36 28.45,103.58 C43.44,101.69 47.4,97.07 48.54,97.07 C49.68,97.07 55.28,99.78 57.04,99.62 C59.9,99.36 60.76,94.16 64.18,90.92 C68.07,87.23 74.78,79.17 74.78,79.17 C74.78,79.17 77.1,82.39 79.04,81.62 C80.4,81.08 82.21,70.83 82.75,65.47 C82.95,63.53 84.17,57.45 83.53,49.63 C82.1,32.1 66.52,27.3 66.52,27.3 Z" fill="#865B50"/>
  <path d="M82.3,19.64 C80.78,19.88 79.01,21.53 78.38,23.43 C77.62,25.71 78,28.33 78.63,28.87 C79.73,29.81 85.11,27.99 85.68,27.99 C87.23,27.99 90.86,29.82 90.86,29.82 C90.86,29.82 86.6,36.96 90.35,43.79 C93.82,50.1 98.82,52.12 105.34,53.43 C109.45,54.26 113.6,54.54 117.21,55.93 C120.82,57.32 120.61,59.82 121.37,59.68 C122.13,59.54 123.45,53.44 121.93,46.77 C120.4,40.11 117.2,28.9 107.78,24.84 C99.65,21.34 93.88,26.4 93.88,26.4 C93.88,26.4 89.68,24.27 86.91,23.69 C86.59,23.64 83.58,19.44 82.3,19.64 Z" fill="#F7922A"/>
  <path d="M99.89,68.93 C99.89,68.93 99.92,64.88 100.41,63.98 C100.9,63.08 103.25,59.89 103.32,59.33 C103.39,58.77 100.23,57.72 97.7,57.53 C94.87,57.31 92.15,58.57 92.15,59.06 C92.15,59.55 94.98,63.68 95.13,64.36 C95.31,65.15 95.27,69.82 95.27,69.82 C95.27,69.82 89.01,70.67 84.79,77.75 C77.66,89.72 84.91,100.68 84.91,100.68 L92.32,97.97 L87.62,105.14 C87.62,105.14 89.5,110.25 98.83,116.64 C108.54,123.29 123.79,124.23 124.1,122.1 C124.29,120.77 121.78,119.55 118.82,113.83 C115.12,106.68 117.31,98.09 117.75,91.84 C118.19,85.59 116.41,77.14 109.35,72.67 C104.07,69.32 99.89,68.93 99.89,68.93 Z" fill="#ED6B2F"/>
  <path d="M60.52,24.6 C60.52,24.6 61.46,22.1 62.93,18.91 C64.13,16.32 66.15,13.71 66.15,13.71 C66.15,13.71 65.01,5.18 65.32,4.45 C65.63,3.72 70,4.55 73.12,5.91 C76.24,7.26 79.57,9.97 79.15,10.9 C78.73,11.83 73.64,14.85 71.77,16.93 C69.9,19.01 68.65,21.19 68.03,22.86 C67.41,24.52 66.57,27.23 66.57,27.23 C66.57,27.23 79.71,31.23 81.19,46.77 C82.4,59.45 77.26,70.49 71.32,76.9 C65.38,83.31 60.73,87.57 59.63,89.76 C58.53,91.95 56.43,95.7 54.96,95.27 C54.36,95.09 48.57,92.61 47.79,92.61 C47.01,92.61 40.42,97.3 30.67,99.6 C19.43,102.25 9.9,101 7.55,100.53 C5.21,100.06 2.36,99.5 3.36,97.96 C4.22,96.63 9.12,93.01 12.89,88.72 C16.98,84.06 19.12,79.11 19.12,79.11 C19.12,79.11 15.05,76.91 14.96,75.47 C14.88,73.97 17.95,71.7 20.15,67.94 C21.64,65.4 24.05,60.26 24.05,58.85 C24.05,57.44 20.31,54.75 20.36,53.66 C20.41,52.58 24,51.69 27.43,45.74 C30.42,40.55 32.6,31.19 42.75,26.52 C52.86,21.88 60.52,24.6 60.52,24.6 Z" fill="#C36639"/>
  <path d="M113.25,33.64 C113.27,34.45 103.27,35.17 103.27,35.17 C103.27,35.17 103.43,46.05 102.37,46.46 C100.62,47.13 99.09,34.82 99.9,33.06 C100.7,31.3 113.2,31.71 113.25,33.64 Z" fill="#ED6B2F"/>
  <path d="M95.32,30.2 C93.88,31.97 98.16,33.87 104.22,38.71 C113.32,45.97 117.57,51.21 118.42,50.88 C119.27,50.55 114.95,42.44 106.45,35.9 C100.74,31.5 96.49,28.76 95.32,30.2 Z" fill="#ED6B2F"/>
  <path d="M98.32,74.05 C97.17,74.1 96.16,80.98 99.76,93.82 C103.37,106.68 112.95,115.83 113.61,115.39 C114.48,114.81 105.6,102.11 103.22,93.24 C101.01,85 99.98,73.98 98.32,74.05 Z" fill="#AB5731"/>
  <path d="M87.96,95.95 C88.43,96.29 92.59,92.04 95.43,88.91 C97.51,86.61 99.4,84.58 99.4,84.58 C99.4,84.58 102.19,85.91 105.32,87.25 C109.51,89.05 114.05,91.53 114.7,90.64 C115.28,89.85 109.51,85.3 106.04,83.42 C102.58,81.54 98.82,80.03 98.82,80.03 C98.82,80.03 95.36,83.13 93.26,85.8 C91.87,87.59 86.67,95.01 87.96,95.95 Z" fill="#AB5731"/>
  <path d="M103.2,95.9 C100.91,96.04 99.1,104.36 98.75,107.44 C98.4,110.52 98.22,112.91 98.96,113.2 C99.72,113.51 103.92,99.75 103.92,99.75 C103.92,99.75 113.73,107.92 114.4,107.13 C115.07,106.34 111.27,101.54 109.22,99.78 C107.17,98.02 104.45,95.82 103.2,95.9 Z" fill="#AB5731"/>
  <path d="M61.65,29.81 C60.3,29.32 56.93,33.59 51,47.56 C44.49,62.88 36.42,73.27 30.23,80.29 C21.95,89.68 16.67,91.95 17.95,92.72 C19.58,93.7 34.43,85.29 43.11,72.8 C47.43,66.58 50.21,61.36 52.57,56.37 C56.89,47.25 57.67,43.72 58.62,40.99 C60.96,34.23 63.01,30.3 61.65,29.81 Z" fill="#865B50"/>
  <path d="M22.13,73.05 C21.98,74.47 30.82,72.82 34.86,71.22 C38.9,69.62 43.47,67.34 43.47,67.34 C43.47,67.34 44.43,72.35 45.64,76.16 C47.41,81.72 52.25,88.73 53.22,88.04 C54.4,87.2 51.37,82.14 49.85,75.15 C48.38,68.38 48.02,60.48 47.94,59.72 C47.86,59 41.72,64.37 34.47,67.74 C27.76,70.86 22.3,71.45 22.13,73.05 Z" fill="#865B50"/>
  <path d="M28.72,52.06 C29.92,53.39 38.09,52.78 43.8,50.55 C49.9,48.16 54.68,46.45 54.68,46.45 C54.68,46.45 55.53,50.21 59.81,57.92 C64.15,65.74 70.81,69.25 71.99,68.24 C73.81,66.68 67.03,63.62 62.97,52.99 C59.55,44.04 59.11,36.08 59.11,36.08 C59.11,36.08 54.25,40.84 43.99,45.26 C34.71,49.26 27.24,50.43 28.72,52.06 Z" fill="#865B50"/>
</svg>
